X:1
T: Oyster Girl
C:
R:Jig
Q:180
K:G
M:6/8
L:1/16
|:Bc|d2e2d2 B4G2|A4F2 D4EF|G2F2G2 B2G2B2|d4c2 A6|
d2e2d2 B2d2g2|f4e2 c4e2|d4B2 c2B2A2|1G6-G4:|2G6-G4d2|
|:B2c2d2 B2c2d2|e4c2 e2d2c2|A2B2c2 A2B2c2|d4B2 d2c2B2|
d2e2d2 B2d2g2|f4e2 c4e2|d4B2 c2B2A2|1G6-G4d2:|2G6-G4||
